src/img/icons/phone.svg

<svg fill="none" height="21" viewBox="0 0 21 21" width="21" xmlns="http://www.w3.org/2000/svg"><path d="m19.9609 15.6172-.9375 3.9453c-.1172.5859-.5859.9766-1.1718.9766-9.84379-.0391-17.8516-8.0469-17.8516-17.89066 0-.58594.351562-1.05469.9375-1.17188l3.94531-.937498c.54688-.117187 1.13281.195313 1.36719.703128l1.83594 4.25781c.19531.50781.07812 1.09375-.35156 1.40625l-2.10938 1.71875c1.32812 2.6953 3.51562 4.8828 6.25 6.2109l1.7188-2.1093c.3124-.3907.8984-.5469 1.4062-.3516l4.2578 1.8359c.5078.2735.8203.8594.7031 1.4063z" fill="#fff"/></svg>

<svg width="21" height="21" viewBox="0 0 21 21" fill="none" xmlns="http://www.w3.org/2000/svg">
<path d="M19.9609 15.6172L19.0234 19.5625C18.9062 20.1484 18.4375 20.5391 17.8516 20.5391C8.00781 20.5 0 12.4922 0 2.64844C0 2.0625 0.351562 1.59375 0.9375 1.47656L4.88281 0.539062C5.42969 0.421875 6.01562 0.734375 6.25 1.24219L8.08594 5.5C8.28125 6.00781 8.16406 6.59375 7.73438 6.90625L5.625 8.625C6.95312 11.3203 9.14062 13.5078 11.875 14.8359L13.5938 12.7266C13.9062 12.3359 14.4922 12.1797 15 12.375L19.2578 14.2109C19.7656 14.4844 20.0781 15.0703 19.9609 15.6172Z" fill="white"/>
</svg>
